static/img/kroki/764c8d0796b70c0c59598d61cf12b1d6.svg

<?xml version="1.0" encoding="us-ascii" standalone="no"?><svg xmlns="http://www.w3.org/2000/svg" xmlns:xlink="http://www.w3.org/1999/xlink" contentStyleType="text/css" height="252px" preserveAspectRatio="none" style="width:344px;height:252px;" version="1.1" viewBox="0 0 344 252" width="344px" zoomAndPan="magnify"><defs/><g><!--class kubernetes_deployment--><g id="elem_kubernetes_deployment"><rect codeLine="23" fill="#3D176E" height="39.7891" id="kubernetes_deployment" rx="2.5" ry="2.5" style="stroke:#000D19;stroke-width:0.5;" width="245" x="7" y="106.79"/><ellipse cx="22" cy="126.6845" fill="#ADD1B2" rx="11" ry="11" style="stroke:#181818;stroke-width:1.0;"/><path d="M24.9688,132.3252 Q24.3906,132.622 23.75,132.7627 Q23.1094,132.9189 22.4063,132.9189 Q19.9063,132.9189 18.5781,131.2783 Q17.2656,129.622 17.2656,126.497 Q17.2656,123.372 18.5781,121.7158 Q19.9063,120.0595 22.4063,120.0595 Q23.1094,120.0595 23.75,120.2158 Q24.4063,120.372 24.9688,120.6689 L24.9688,123.3877 Q24.3438,122.8095 23.75,122.5439 Q23.1563,122.2627 22.5313,122.2627 Q21.1875,122.2627 20.5,123.3408 Q19.8125,124.4033 19.8125,126.497 Q19.8125,128.5908 20.5,129.6689 Q21.1875,130.7314 22.5313,130.7314 Q23.1563,130.7314 23.75,130.4658 Q24.3438,130.1845 24.9688,129.6064 L24.9688,132.3252 Z " fill="#000000"/><text fill="#D9B8FF" font-family="Helvetica" font-size="17" lengthAdjust="spacing" textLength="203" x="41" y="132.5698">kubernetes_deployment</text></g><!--class kubernetes_namespace--><g id="elem_kubernetes_namespace"><rect codeLine="26" fill="#3D176E" height="39.7891" id="kubernetes_namespace" rx="2.5" ry="2.5" style="stroke:#000D19;stroke-width:0.5;" width="239" x="98" y="7"/><ellipse cx="113" cy="26.8945" fill="#ADD1B2" rx="11" ry="11" style="stroke:#181818;stroke-width:1.0;"/><path d="M115.9688,32.5352 Q115.3906,32.832 114.75,32.9727 Q114.1094,33.1289 113.4063,33.1289 Q110.9063,33.1289 109.5781,31.4883 Q108.2656,29.832 108.2656,26.707 Q108.2656,23.582 109.5781,21.9258 Q110.9063,20.2695 113.4063,20.2695 Q114.1094,20.2695 114.75,20.4258 Q115.4063,20.582 115.9688,20.8789 L115.9688,23.5977 Q115.3438,23.0195 114.75,22.7539 Q114.1563,22.4727 113.5313,22.4727 Q112.1875,22.4727 111.5,23.5508 Q110.8125,24.6133 110.8125,26.707 Q110.8125,28.8008 111.5,29.8789 Q112.1875,30.9414 113.5313,30.9414 Q114.1563,30.9414 114.75,30.6758 Q115.3438,30.3945 115.9688,29.8164 L115.9688,32.5352 Z " fill="#000000"/><text fill="#D9B8FF" font-family="Helvetica" font-size="17" lengthAdjust="spacing" textLength="197" x="132" y="32.7798">kubernetes_namespace</text></g><!--class kubernetes_replica_set--><g id="elem_kubernetes_replica_set"><rect codeLine="29" fill="#3D176E" height="39.7891" id="kubernetes_replica_set" rx="2.5" ry="2.5" style="stroke:#000D19;stroke-width:0.5;" width="234" x="100.5" y="206.58"/><ellipse cx="115.5" cy="226.4745" fill="#ADD1B2" rx="11" ry="11" style="stroke:#181818;stroke-width:1.0;"/><path d="M118.4688,232.1152 Q117.8906,232.412 117.25,232.5527 Q116.6094,232.7089 115.9063,232.7089 Q113.4063,232.7089 112.0781,231.0683 Q110.7656,229.412 110.7656,226.287 Q110.7656,223.162 112.0781,221.5058 Q113.4063,219.8495 115.9063,219.8495 Q116.6094,219.8495 117.25,220.0058 Q117.9063,220.162 118.4688,220.4589 L118.4688,223.1777 Q117.8438,222.5995 117.25,222.3339 Q116.6563,222.0527 116.0313,222.0527 Q114.6875,222.0527 114,223.1308 Q113.3125,224.1933 113.3125,226.287 Q113.3125,228.3808 114,229.4589 Q114.6875,230.5214 116.0313,230.5214 Q116.6563,230.5214 117.25,230.2558 Q117.8438,229.9745 118.4688,229.3964 L118.4688,232.1152 Z " fill="#000000"/><text fill="#D9B8FF" font-family="Helvetica" font-size="17" lengthAdjust="spacing" textLength="192" x="134.5" y="232.3598">kubernetes_replica_set</text></g><!--link kubernetes_deployment to kubernetes_replica_set--><g id="link_kubernetes_deployment_kubernetes_replica_set"><path codeLine="32" d="M146.89,147.01 C162.31,164.15 180.7171,184.5995 196.1371,201.7395 " fill="none" id="kubernetes_deployment-to-kubernetes_replica_set" style="stroke:#1A83AF;stroke-width:2.0;"/><polygon fill="#1A83AF" points="200.15,206.2,197.1043,196.8339,196.8059,202.4829,191.1569,202.1845,200.15,206.2" style="stroke:#1A83AF;stroke-width:2.0;"/></g><!--link kubernetes_namespace to kubernetes_deployment--><g id="link_kubernetes_namespace_kubernetes_deployment"><path codeLine="33" d="M200.11,47.22 C184.69,64.36 166.2829,84.8095 150.8629,101.9495 " fill="none" id="kubernetes_namespace-to-kubernetes_deployment" style="stroke:#1A83AF;stroke-width:2.0;"/><polygon fill="#1A83AF" points="146.85,106.41,155.8431,102.3945,150.1941,102.6929,149.8957,97.0439,146.85,106.41" style="stroke:#1A83AF;stroke-width:2.0;"/></g><!--link kubernetes_namespace to kubernetes_replica_set--><g id="link_kubernetes_namespace_kubernetes_replica_set"><path codeLine="34" d="M234.75,46.99 C247.11,62.03 262.71,84.17 269.5,106.79 C274.58,123.73 274.58,129.64 269.5,146.58 C262.71,169.21 250.9195,186.7045 238.5595,201.7445 " fill="none" id="kubernetes_namespace-to-kubernetes_replica_set" style="stroke:#1A83AF;stroke-width:2.0;"/><polygon fill="#1A83AF" points="234.75,206.38,243.5546,201.9664,237.9246,202.5171,237.3739,196.8871,234.75,206.38" style="stroke:#1A83AF;stroke-width:2.0;"/></g><!--SRC=[bP91IyD048Nl-HKBEHSIWxQz2B5Gz5B4UXCfc-nikoJP3RCJInN_knjRTPiqBLxtVVFclMKsIW23ggOTgw3A06rW2wLhZhnYAQBPpanfa8LISfcCk-BSQBe8B7W5x1xADo2Lyoxnl55veS5QTkL9TpmlrcWQBVRsX5nR9u4cZvgLtDgK25NM47XXn3IRIDabkwPX8kBn3VGmWmBmW4HH9E9f5xcuwcplNsAfte75_gSj344lPc_5DtKsPKju8Nj5V_J1Z8zS2ANNxDfxUzfdGWruzBxSS66sBIrvQVqrbW31qAw6MQyLJ2T2Za_23qDmaBTVnuh6NQe60hiIK9TcLxcxO1z1yDa7j6leBYU70HsTWQk-id1mE6q-UWdZT9AayzVHxS1uS7BhqE2Vz__c_8LV]--></g></svg>

<svg xmlns="http://www.w3.org/2000/svg" width="344" height="252" viewBox="0 0 344 252"><rect width="245" height="39.789" x="7" y="106.79" fill="#3D176E" rx="2.5" ry="2.5" style="stroke:#000d19;stroke-width:.5"/><circle cx="22" cy="126.684" r="11" fill="#ADD1B2" style="stroke:#181818;stroke-width:1"/><path d="M24.969 132.325q-.578.297-1.219.438-.64.156-1.344.156-2.5 0-3.828-1.64-1.312-1.657-1.312-4.782t1.312-4.781q1.328-1.656 3.828-1.656.703 0 1.344.156.656.156 1.219.453v2.719q-.625-.579-1.219-.844-.594-.281-1.219-.281-1.343 0-2.031 1.078-.687 1.062-.687 3.156t.687 3.172q.688 1.062 2.031 1.062.625 0 1.219-.265.594-.281 1.219-.86z"/><text x="41" y="132.57" fill="#D9B8FF" font-family="Helvetica" font-size="17" textLength="203">kubernetes_deployment</text><rect width="239" height="39.789" x="98" y="7" fill="#3D176E" rx="2.5" ry="2.5" style="stroke:#000d19;stroke-width:.5"/><circle cx="113" cy="26.895" r="11" fill="#ADD1B2" style="stroke:#181818;stroke-width:1"/><path d="M115.969 32.535q-.578.297-1.219.438-.64.156-1.344.156-2.5 0-3.828-1.64-1.312-1.657-1.312-4.782t1.312-4.781q1.328-1.656 3.828-1.656.703 0 1.344.156.656.156 1.219.453v2.719q-.625-.578-1.219-.844-.594-.281-1.219-.281-1.344 0-2.031 1.078-.687 1.062-.687 3.156t.687 3.172q.688 1.062 2.031 1.062.625 0 1.219-.265.594-.281 1.219-.86z"/><text x="132" y="32.78" fill="#D9B8FF" font-family="Helvetica" font-size="17" textLength="197">kubernetes_namespace</text><rect width="234" height="39.789" x="100.5" y="206.58" fill="#3D176E" rx="2.5" ry="2.5" style="stroke:#000d19;stroke-width:.5"/><circle cx="115.5" cy="226.475" r="11" fill="#ADD1B2" style="stroke:#181818;stroke-width:1"/><path d="M118.469 232.115q-.578.297-1.219.438-.64.156-1.344.156-2.5 0-3.828-1.64-1.312-1.657-1.312-4.782t1.312-4.781q1.328-1.656 3.828-1.656.703 0 1.344.156.656.156 1.219.453v2.719q-.625-.578-1.219-.844-.594-.281-1.219-.281-1.344 0-2.031 1.078-.687 1.062-.687 3.156t.687 3.172q.688 1.062 2.031 1.062.625 0 1.219-.265.594-.281 1.219-.86z"/><text x="134.5" y="232.36" fill="#D9B8FF" font-family="Helvetica" font-size="17" textLength="192">kubernetes_replica_set</text><path fill="none" d="M146.89 147.01c15.42 17.14 33.827 37.59 49.247 54.73" style="stroke:#1a83af;stroke-width:2"/><path fill="#1A83AF" d="m200.15 206.2-3.046-9.366-.298 5.649-5.65-.298z" style="stroke:#1a83af;stroke-width:2"/><path fill="none" d="M200.11 47.22c-15.42 17.14-33.827 37.59-49.247 54.73" style="stroke:#1a83af;stroke-width:2"/><path fill="#1A83AF" d="m146.85 106.41 8.993-4.016-5.649.299-.298-5.65z" style="stroke:#1a83af;stroke-width:2"/><path fill="none" d="M234.75 46.99c12.36 15.04 27.96 37.18 34.75 59.8 5.08 16.94 5.08 22.85 0 39.79-6.79 22.63-18.58 40.124-30.94 55.164" style="stroke:#1a83af;stroke-width:2"/><path fill="#1A83AF" d="m234.75 206.38 8.805-4.414-5.63.551-.551-5.63z" style="stroke:#1a83af;stroke-width:2"/></svg>
